X:19
T:Scarbro Fair
T:The Elfin Knight
B:Bronson
C:Trad
O:Child MSS., XXI, No. 18. Sent by Frank Kidson, 1884;
O:from oral tradition.
N:Child 2
G:B
M:6/8
K:GIon % p I
D | GGG AAA | ddd A z B |
ccc cBA | GFE D z D | GGG AAA |
ddd A z B | c/c/cB AG/G/F | G z z2 |]
